gtk-icons/Papirus-Dark-GTK/22x22/actions/labplot-zoom-in-x.svg

<?xml version="1.0" encoding="UTF-8" standalone="no"?>
<!-- Created with Inkscape (http://www.inkscape.org/) -->

<svg
   xmlns:dc="http://purl.org/dc/elements/1.1/"
   xmlns:cc="http://creativecommons.org/ns#"
   xmlns:rdf="http://www.w3.org/1999/02/22-rdf-syntax-ns#"
   xmlns:svg="http://www.w3.org/2000/svg"
   xmlns="http://www.w3.org/2000/svg"
   xmlns:sodipodi="http://sodipodi.sourceforge.net/DTD/sodipodi-0.dtd"
   xmlns:inkscape="http://www.inkscape.org/namespaces/inkscape"
   width="22"
   height="22"
   id="svg4355"
   version="1.1"
   inkscape:version="0.91 r13725"
   sodipodi:docname="labplot-zoom-in-x.svg">
  <defs
     id="defs4357">
    <style
       type="text/css"
       id="current-color-scheme">
      .ColorScheme-Text {
        color:#4d4d4d;
      }
      .ColorScheme-Background {
        color:#eff0f1;
      }
      .ColorScheme-Highlight {
        color:#3daee9;
      }
      .ColorScheme-ViewText {
        color:#31363b;
      }
      .ColorScheme-ViewBackground {
        color:#fcfcfc;
      }
      .ColorScheme-ViewHover {
        color:#93cee9;
      }
      .ColorScheme-ViewFocus{
        color:#3daee9;
      }
      .ColorScheme-ButtonText {
        color:#31363b;
      }
      .ColorScheme-ButtonBackground {
        color:#eff0f1;
      }
      .ColorScheme-ButtonHover {
        color:#93cee9;
      }
      .ColorScheme-ButtonFocus{
        color:#3daee9;
      }
      </style>
  </defs>
  <sodipodi:namedview
     id="base"
     pagecolor="#ffffff"
     bordercolor="#666666"
     borderopacity="1.0"
     inkscape:pageopacity="0.0"
     inkscape:pageshadow="2"
     inkscape:zoom="24.26"
     inkscape:cx="8.197571"
     inkscape:cy="8.0782804"
     inkscape:document-units="px"
     inkscape:current-layer="layer1"
     showgrid="false"
     width="0px"
     height="0px"
     fit-margin-top="0"
     fit-margin-left="0"
     fit-margin-right="0"
     fit-margin-bottom="0"
     inkscape:window-width="1600"
     inkscape:window-height="847"
     inkscape:window-x="0"
     inkscape:window-y="30"
     inkscape:window-maximized="1"
     inkscape:showpageshadow="false"
     showguides="false">
    <inkscape:grid
       type="xygrid"
       id="grid4112" />
    <sodipodi:guide
       position="2.0000011,19.999996"
       orientation="18,0"
       id="guide4118" />
    <sodipodi:guide
       position="2.0000011,1.9999962"
       orientation="0,18"
       id="guide4120" />
    <sodipodi:guide
       position="20.000001,1.9999962"
       orientation="-18,0"
       id="guide4122" />
    <sodipodi:guide
       position="20.000001,19.999996"
       orientation="0,-18"
       id="guide4124" />
    <sodipodi:guide
       position="3.0000011,18.999996"
       orientation="16,0"
       id="guide4126" />
    <sodipodi:guide
       position="3.0000011,2.9999962"
       orientation="0,16"
       id="guide4128" />
    <sodipodi:guide
       position="19.000001,2.9999962"
       orientation="-16,0"
       id="guide4130" />
    <sodipodi:guide
       position="19.000001,18.999996"
       orientation="0,-16"
       id="guide4132" />
  </sodipodi:namedview>
  <metadata
     id="metadata4360">
    <rdf:RDF>
      <cc:Work
         rdf:about="">
        <dc:format>image/svg+xml</dc:format>
        <dc:type
           rdf:resource="http://purl.org/dc/dcmitype/StillImage" />
        <dc:title />
      </cc:Work>
    </rdf:RDF>
  </metadata>
  <g
     inkscape:label="Capa 1"
     inkscape:groupmode="layer"
     id="layer1"
     transform="translate(-544.57141,-742.93359)">
    <path
       style="opacity:0.72;fill:#ffffff;fill-opacity:1;stroke:none"
       d="M 3 3 L 3 5 L 4 5 L 4 4 L 5 4 L 5 3 L 3 3 z M 8 3 L 8 4 L 10 4 L 10 3 L 8 3 z M 16.171875 3.6699219 L 15.464844 4.3769531 L 17.085938 6 L 12.429688 6 L 12.429688 7 L 17.085938 7 L 15.464844 8.6210938 L 16.171875 9.328125 L 18.292969 7.2070312 L 19 6.5 L 16.171875 3.6699219 z M 3 8 L 3 10 L 4 10 L 4 8 L 3 8 z M 18 12 L 18 14 L 19 14 L 19 12 L 18 12 z M 3 13 L 3 19 L 9 19 L 9 13 L 3 13 z M 18 17 L 18 18 L 17 18 L 17 19 L 19 19 L 19 17 L 18 17 z M 12 18 L 12 19 L 14 19 L 14 18 L 12 18 z "
       transform="translate(544.57141,742.93359)"
       id="path4153" />
  </g>
</svg>

<?xml version="1.0" encoding="UTF-8" standalone="no"?>
<!-- Created with Inkscape (http://www.inkscape.org/) -->
<svg id="svg4355" xmlns:rdf="http://www.w3.org/1999/02/22-rdf-syntax-ns#" xmlns="http://www.w3.org/2000/svg" height="22" width="22" version="1.1" xmlns:cc="http://creativecommons.org/ns#" xmlns:dc="http://purl.org/dc/elements/1.1/">
 <defs id="defs4357">
  <style id="current-color-scheme" type="text/css">.ColorScheme-Text {
        color:#4d4d4d;
      }
      .ColorScheme-Background {
        color:#eff0f1;
      }
      .ColorScheme-Highlight {
        color:#3daee9;
      }
      .ColorScheme-ViewText {
        color:#31363b;
      }
      .ColorScheme-ViewBackground {
        color:#fcfcfc;
      }
      .ColorScheme-ViewHover {
        color:#93cee9;
      }
      .ColorScheme-ViewFocus{
        color:#3daee9;
      }
      .ColorScheme-ButtonText {
        color:#31363b;
      }
      .ColorScheme-ButtonBackground {
        color:#eff0f1;
      }
      .ColorScheme-ButtonHover {
        color:#93cee9;
      }
      .ColorScheme-ButtonFocus{
        color:#3daee9;
      }</style>
 </defs>
 <metadata id="metadata4360">
  <rdf:RDF>
   <cc:Work rdf:about="">
    <dc:format>image/svg+xml</dc:format>
    <dc:type rdf:resource="http://purl.org/dc/dcmitype/StillImage"/>
    <dc:title/>
   </cc:Work>
  </rdf:RDF>
 </metadata>
 <g id="layer1" transform="translate(-544.57 -742.93)">
  <path id="path4153" opacity=".72" d="m3 3v2h1v-1h1v-1h-2zm5 0v1h2v-1h-2zm8.172 0.6699l-0.707 0.7071 1.621 1.623h-4.656v1h4.656l-1.621 1.6211 0.707 0.707 2.121-2.1211 0.707-0.707-2.828-2.8301zm-13.172 4.3301v2h1v-2h-1zm15 4v2h1v-2h-1zm-15 1v6h6v-6h-6zm15 4v1h-1v1h2v-2h-1zm-6 1v1h2v-1h-2z" transform="translate(544.57 742.93)" fill="#fff"/>
 </g>
</svg>
